src/images/icons/icon-support.svg

<svg width="32" height="32" viewBox="0 0 32 32" fill="none" xmlns="http://www.w3.org/2000/svg">
<path d="M16 0C24.8366 0 32 7.16344 32 16C32 24.8366 24.8366 32 16 32C7.16344 32 0 24.8366 0 16C0 7.16344 7.16344 0 16 0Z" fill="#ACF5F7"/>
<path fill-rule="evenodd" clip-rule="evenodd" d="M16.6876 7.00313L16.433 7L16.1773 7.00352C13.3789 7.08092 11.0682 8.43728 10.518 11.1881C10.4069 11.7442 10.8242 12.2643 11.3753 12.3271L11.4872 12.3335H13.2679L13.3989 12.3243C13.7409 12.276 14.0221 12.0409 14.1649 11.7196L14.2711 11.4356C14.617 10.598 15.3948 10.1333 16.2446 10.0785L16.4154 10.073L16.5806 10.078C17.6717 10.1449 18.5387 10.8736 18.6155 11.9814L18.621 12.1426L18.6131 12.3364C18.53 13.3509 17.7951 14.0653 16.8332 14.7008L16.6503 14.8191L16.1567 15.1249C15.1055 15.7793 14.4587 16.3143 14.3073 18.9026L14.2929 19.1893L14.295 19.3075C14.3315 19.7743 14.6989 20.1566 15.1642 20.2091L15.2739 20.2152H16.7688L16.8842 20.2083C17.3002 20.1584 17.6324 19.8416 17.7232 19.43L17.7419 19.3155L17.7719 19.0779C17.9654 17.7759 18.5538 17.2211 19.5905 16.5783L19.9863 16.3367C21.4896 15.3921 22.482 14.1563 22.5655 12.2698L22.5712 12.0085L22.5666 11.7792C22.4491 8.82926 20.0564 7.08644 16.6876 7.00313ZM16.2041 21.6852L16.0541 21.6798L15.8997 21.6852C14.777 21.7642 13.8763 22.6975 13.8847 23.8306C13.8763 24.9796 14.777 25.9154 15.8997 25.9946L16.0541 26L16.2041 25.9946C17.247 25.919 18.1312 25.0629 18.2168 23.9859L18.2235 23.8306L18.2168 23.6774C18.1312 22.6144 17.247 21.7606 16.2041 21.6852Z" fill="#0DCBCF"/>
</svg>

<svg xmlns="http://www.w3.org/2000/svg" width="32" height="32" fill="none"><path fill="#ACF5F7" d="M16 0c8.837 0 16 7.163 16 16s-7.163 16-16 16S0 24.837 0 16 7.163 0 16 0Z"/><path fill="#0DCBCF" fill-rule="evenodd" d="M16.688 7.003 16.433 7l-.256.004c-2.798.077-5.109 1.433-5.659 4.184-.111.556.306 1.076.857 1.14l.112.006h1.78l.132-.01c.342-.048.623-.283.766-.604l.106-.284c.346-.838 1.124-1.303 1.974-1.357l.17-.006.166.005c1.09.067 1.958.796 2.035 1.903l.005.162-.008.193c-.083 1.015-.818 1.73-1.78 2.365l-.183.118-.493.306c-1.052.654-1.698 1.19-1.85 3.778l-.014.286.002.119c.037.466.404.849.87.901l.109.006h1.495l.115-.007a.989.989 0 0 0 .84-.778l.018-.114.03-.238c.193-1.302.782-1.857 1.819-2.5l.395-.241c1.504-.945 2.496-2.18 2.58-4.067l.005-.261-.004-.23c-.118-2.95-2.51-4.693-5.88-4.776Zm-.484 14.682-.15-.005-.154.005c-1.123.08-2.024 1.013-2.015 2.146a2.164 2.164 0 0 0 2.015 2.164l.154.005.15-.005a2.206 2.206 0 0 0 2.013-2.01l.007-.154-.007-.154c-.086-1.063-.97-1.916-2.013-1.992Z" clip-rule="evenodd"/></svg>
